assets/images/tools/github.svg

<svg height="41" viewBox="0 0 146 41" width="146" xmlns="http://www.w3.org/2000/svg" xmlns:xlink="http://www.w3.org/1999/xlink"><mask id="a" fill="#fff"><path d="m0 .24h28.6007677v39.3559192h-28.6007677z" fill="#fff" fill-rule="evenodd"/></mask><mask id="b" fill="#fff"><path d="m.12226263.04945455h24.19410097v37.89131315h-24.19410097z" fill="#fff" fill-rule="evenodd"/></mask><g fill="#100f0f" fill-rule="evenodd" transform="translate(0 .711836)"><path d="m28.0294545 17.0848081h-12.2294949c-.3151515 0-.5713131.2561616-.5713131.5717172v5.9789899c0 .3155555.2561616.5721212.5713131.5721212h4.7709091v7.4286868s-1.0711111.3648485-4.0323232.3648485c-3.4941415 0-8.37494954-1.2763636-8.37494954-12.0092929 0-10.73494951 5.08242424-12.14747476 9.85373734-12.14747476 4.130101 0 5.909899.72727273 7.0416162 1.07757576.3559596.10868687.6848485-.24525253.6848485-.56080808l1.3644444-5.7769697c0-.14787879-.050101-.32565657-.2181818-.44646465-.460202-.3280808-3.2650505-1.89777777-10.3515151-1.89777777-8.16444449 0-16.5385859 3.47353535-16.5385859 20.170505 0 16.6973738 9.58787878 19.1854546 17.6674747 19.1854546 6.689697 0 10.7478788-2.8585859 10.7478788-2.8585859.1672728-.0921212.1854546-.3260606.1854546-.4331313v-18.6476767c0-.3155556-.2557576-.5717172-.5713132-.5717172" mask="url(#a)" transform="translate(0 .16396)"/><path d="m91.0530101 2.40460606c0-.3179798-.2521212-.57494949-.5676768-.57494949h-6.8856565c-.3147475 0-.570101.25696969-.570101.57494949 0 .00161616.0016161 13.30707074.0016161 13.30707074h-10.7329293v-13.30707074c0-.3179798-.2533333-.57494949-.5680808-.57494949h-6.8856565c-.3131314 0-.5684849.25696969-.5684849.57494949v36.03151514c0 .3175758.2553535.5765657.5684849.5765657h6.8856565c.3147475 0 .5680808-.2589899.5680808-.5765657v-15.4121212h10.7329293s-.0185858 15.4109091-.0185858 15.4121212c0 .3175758.2553535.5765657.570505.5765657h6.9018182c.3151515 0 .5672727-.2589899.5680808-.5765657z"/><path d="m41.0230303 7.13276768c0-2.47959596-1.9878788-4.48282829-4.440404-4.48282829-2.450101 0-4.439192 2.00323233-4.439192 4.48282829 0 2.47676767 1.989091 4.48606062 4.439192 4.48606062 2.4525252 0 4.440404-2.00929295 4.440404-4.48606062"/><path d="m40.5306263 30.8352323v-16.6323232c0-.3155556-.2545455-.5737374-.569697-.5737374h-6.8638384c-.3151515 0-.5967677.3248485-.5967677.6404041v23.8290909c0 .700202.4363637.9086868 1.0012122.9086868h6.1842424c.6783838 0 .8448485-.3333333.8448485-.92z"/><path d="m117.221737 13.6834343h-6.832727c-.313535 0-.568485.2581819-.568485.5761617v17.6670707s-1.736161 1.270303-4.2 1.270303c-2.463838 0-3.117576-1.1179798-3.117576-3.5305051v-15.4068686c0-.3179798-.254545-.5761617-.56808-.5761617h-6.9349498c-.3127273 0-.5692929.2581819-.5692929.5761617v16.5733333c0 7.1656566 3.9935353 8.9187879 9.4872727 8.9187879 4.507475 0 8.141414-2.490101 8.141414-2.490101s.172525 1.3123232.251313 1.4678787c.07798.1551516.28202.3119192.502627.3119192l4.411717-.0193939c.312727 0 .569293-.2585859.569293-.5753535l-.002425-24.1870707c0-.3179798-.255353-.5761617-.570101-.5761617"/><path d="m11.9901414 31.3949091c-2.370101-.0723232-3.97777776-1.1474748-3.97777776-1.1474748v-11.410505s1.58585858-.9721212 3.53171716-1.1458586c2.4606061-.220202 4.8315152.5228283 4.8315152 6.3927273 0 6.1894949-1.069899 7.4113131-4.3854546 7.3111111m2.6949495-20.3010101c-3.8808081 0-6.52040403 1.7317172-6.52040403 1.7317172v-12.20121216c0-.3179798-.25454546-.57494949-.56808081-.57494949h-6.90545454c-.3139394 0-.56888889.25696969-.56888889.57494949v36.03151516c0 .3179798.25494949.5765656.57010101.5765656h4.79070707c.21575757 0 .3789899-.1115151.49979798-.3062626.11919192-.1935353.29090909-1.6610101.29090909-1.6610101s2.82343434 2.6755556 8.16848482 2.6755556c6.2755556 0 9.8743435-3.1830303 9.8743435-14.289293 0-11.1062626-5.7478788-12.5575757-9.6315152-12.5575757" mask="url(#b)" transform="translate(121.212121 1.780121)"/><path d="m60.3205253 13.6260202h-5.1652526s-.0076767-6.82222222-.0076767-6.82383838c0-.25818182-.1329293-.38747475-.4319192-.38747475h-7.0383839c-.2735353 0-.420606.12080808-.420606.38383838v7.05131315s-3.5272728.8513131-3.7660606.920404c-.2371718.0686869-.4121212.2876768-.4121212.5490909v4.4311111c0 .3183839.2545454.5757576.5692929.5757576h3.6088889v10.660202c0 7.9175758 5.5543434 8.6953536 9.3018182 8.6953536 1.7123232 0 3.760808-.549899 4.0989898-.6747475.2044445-.0751515.3236364-.2868687.3236364-.5163636l.0052525-4.8747475c0-.3179798-.2682828-.5753535-.570505-.5753535-.3010101 0-1.0711111.1228282-1.8638384.1228282-2.5369697 0-3.3967677-1.1797979-3.3967677-2.7070707 0-1.5256565-.000404-10.130101-.000404-10.130101h5.1656566c.3147474 0 .570101-.2573737.570101-.5757576v-5.550303c0-.3179798-.2553536-.5741414-.570101-.5741414"/></g></svg>

<?xml version="1.0" encoding="UTF-8"?>
<svg width="146px" height="41px" viewBox="0 0 146 41" version="1.1" xmlns="http://www.w3.org/2000/svg" xmlns:xlink="http://www.w3.org/1999/xlink">
    <title>logo_github</title>
    <defs>
        <polygon id="path-1" points="0 0.24 28.6007677 0.24 28.6007677 39.5959192 0 39.5959192"></polygon>
        <polygon id="path-3" points="0.122262626 0.0494545455 24.3163636 0.0494545455 24.3163636 37.9407677 0.122262626 37.9407677"></polygon>
    </defs>
    <g id="Home" stroke="none" stroke-width="1" fill="none" fill-rule="evenodd">
        <g id="methodologie" transform="translate(-380.000000, -7950.000000)">
            <g id="logo_github" transform="translate(380.000000, 7950.711836)">
                <g id="Group-3" transform="translate(0.000000, 0.163960)">
                    <mask id="mask-2" fill="white">
                        <use xlink:href="#path-1"></use>
                    </mask>
                    <g id="Clip-2"></g>
                    <path d="M28.0294545,17.0848081 L15.7999596,17.0848081 C15.4848081,17.0848081 15.2286465,17.3409697 15.2286465,17.6565253 L15.2286465,23.6355152 C15.2286465,23.9510707 15.4848081,24.2076364 15.7999596,24.2076364 L20.5708687,24.2076364 L20.5708687,31.6363232 C20.5708687,31.6363232 19.4997576,32.0011717 16.5385455,32.0011717 C13.044404,32.0011717 8.16359596,30.7248081 8.16359596,19.9918788 C8.16359596,9.25692929 13.2460202,7.84440404 18.0173333,7.84440404 C22.1474343,7.84440404 23.9272323,8.57167677 25.0589495,8.9219798 C25.4149091,9.03066667 25.743798,8.67672727 25.743798,8.36117172 L27.1082424,2.58420202 C27.1082424,2.43632323 27.0581414,2.25854545 26.8900606,2.13773737 C26.4298586,1.80965657 23.6250101,0.239959596 16.5385455,0.239959596 C8.37410101,0.239959596 -4.04040404e-05,3.71349495 -4.04040404e-05,20.4104646 C-4.04040404e-05,37.1078384 9.58783838,39.5959192 17.6674343,39.5959192 C24.3571313,39.5959192 28.4153131,36.7373333 28.4153131,36.7373333 C28.5825859,36.6452121 28.6007677,36.4112727 28.6007677,36.304202 L28.6007677,17.6565253 C28.6007677,17.3409697 28.3450101,17.0848081 28.0294545,17.0848081" id="Fill-1" fill="#100F0F" mask="url(#mask-2)"></path>
                </g>
                <path d="M91.0530101,2.40460606 C91.0530101,2.08662626 90.8008889,1.82965657 90.4853333,1.82965657 L83.5996768,1.82965657 C83.2849293,1.82965657 83.0295758,2.08662626 83.0295758,2.40460606 C83.0295758,2.40622222 83.0311919,15.7116768 83.0311919,15.7116768 L72.2982626,15.7116768 L72.2982626,2.40460606 C72.2982626,2.08662626 72.0449293,1.82965657 71.7301818,1.82965657 L64.8445253,1.82965657 C64.5313939,1.82965657 64.2760404,2.08662626 64.2760404,2.40460606 L64.2760404,38.4361212 C64.2760404,38.753697 64.5313939,39.0126869 64.8445253,39.0126869 L71.7301818,39.0126869 C72.0449293,39.0126869 72.2982626,38.753697 72.2982626,38.4361212 L72.2982626,23.024 L83.0311919,23.024 C83.0311919,23.024 83.0126061,38.4349091 83.0126061,38.4361212 C83.0126061,38.753697 83.2679596,39.0126869 83.5831111,39.0126869 L90.4849293,39.0126869 C90.8000808,39.0126869 91.052202,38.753697 91.0530101,38.4361212 L91.0530101,2.40460606 Z" id="Fill-4" fill="#100F0F"></path>
                <path d="M41.0230303,7.13276768 C41.0230303,4.65317172 39.0351515,2.64993939 36.5826263,2.64993939 C34.1325253,2.64993939 32.1434343,4.65317172 32.1434343,7.13276768 C32.1434343,9.60953535 34.1325253,11.6188283 36.5826263,11.6188283 C39.0351515,11.6188283 41.0230303,9.60953535 41.0230303,7.13276768" id="Fill-6" fill="#100F0F"></path>
                <path d="M40.5306263,30.8352323 L40.5306263,14.2029091 C40.5306263,13.8873535 40.2760808,13.6291717 39.9609293,13.6291717 L33.0970909,13.6291717 C32.7819394,13.6291717 32.5003232,13.9540202 32.5003232,14.2695758 L32.5003232,38.0986667 C32.5003232,38.7988687 32.9366869,39.0073535 33.5015354,39.0073535 L39.6857778,39.0073535 C40.3641616,39.0073535 40.5306263,38.6740202 40.5306263,38.0873535 L40.5306263,30.8352323 Z" id="Fill-8" fill="#100F0F"></path>
                <path d="M117.221737,13.6834343 L110.38901,13.6834343 C110.075475,13.6834343 109.820525,13.9416162 109.820525,14.259596 L109.820525,31.9266667 C109.820525,31.9266667 108.084364,33.1969697 105.620525,33.1969697 C103.156687,33.1969697 102.502949,32.0789899 102.502949,29.6664646 L102.502949,14.259596 C102.502949,13.9416162 102.248404,13.6834343 101.934869,13.6834343 L94.9999192,13.6834343 C94.6871919,13.6834343 94.4306263,13.9416162 94.4306263,14.259596 L94.4306263,30.8329293 C94.4306263,37.9985859 98.4241616,39.7517172 103.917899,39.7517172 C108.425374,39.7517172 112.059313,37.2616162 112.059313,37.2616162 C112.059313,37.2616162 112.231838,38.5739394 112.310626,38.7294949 C112.388606,38.8846465 112.592646,39.0414141 112.813253,39.0414141 L117.22497,39.0220202 C117.537697,39.0220202 117.794263,38.7634343 117.794263,38.4466667 L117.791838,14.259596 C117.791838,13.9416162 117.536485,13.6834343 117.221737,13.6834343" id="Fill-10" fill="#100F0F"></path>
                <g id="Group-14" transform="translate(121.212121, 1.780121)">
                    <mask id="mask-4" fill="white">
                        <use xlink:href="#path-3"></use>
                    </mask>
                    <g id="Clip-13"></g>
                    <path d="M11.9901414,31.3949091 C9.6200404,31.3225859 8.01236364,30.2474343 8.01236364,30.2474343 L8.01236364,18.8369293 C8.01236364,18.8369293 9.59822222,17.8648081 11.5440808,17.6910707 C14.0046869,17.4708687 16.375596,18.213899 16.375596,24.083798 C16.375596,30.2732929 15.305697,31.4951111 11.9901414,31.3949091 M14.6850909,11.093899 C10.8042828,11.093899 8.16468687,12.8256162 8.16468687,12.8256162 L8.16468687,0.62440404 C8.16468687,0.306424242 7.91014141,0.0494545455 7.59660606,0.0494545455 L0.691151515,0.0494545455 C0.377212121,0.0494545455 0.122262626,0.306424242 0.122262626,0.62440404 L0.122262626,36.6559192 C0.122262626,36.973899 0.377212121,37.2324848 0.692363636,37.2324848 L5.48307071,37.2324848 C5.69882828,37.2324848 5.86206061,37.1209697 5.98286869,36.9262222 C6.10206061,36.7326869 6.27377778,35.2652121 6.27377778,35.2652121 C6.27377778,35.2652121 9.09721212,37.9407677 14.4422626,37.9407677 C20.7178182,37.9407677 24.3166061,34.7577374 24.3166061,23.6514747 C24.3166061,12.5452121 18.5687273,11.093899 14.6850909,11.093899" id="Fill-12" fill="#100F0F" mask="url(#mask-4)"></path>
                </g>
                <path d="M60.3205253,13.6260202 L55.1552727,13.6260202 C55.1552727,13.6260202 55.147596,6.80379798 55.147596,6.80218182 C55.147596,6.544 55.0146667,6.41470707 54.7156768,6.41470707 L47.6772929,6.41470707 C47.4037576,6.41470707 47.2566869,6.53551515 47.2566869,6.79854545 L47.2566869,13.8498586 C47.2566869,13.8498586 43.7294141,14.7011717 43.4906263,14.7702626 C43.2534545,14.8389495 43.0785051,15.0579394 43.0785051,15.3193535 L43.0785051,19.7504646 C43.0785051,20.0688485 43.3330505,20.3262222 43.647798,20.3262222 L47.2566869,20.3262222 L47.2566869,30.9864242 C47.2566869,38.904 52.8110303,39.6817778 56.5585051,39.6817778 C58.2708283,39.6817778 60.3193131,39.1318788 60.6574949,39.0070303 C60.8619394,38.9318788 60.9811313,38.7201616 60.9811313,38.4906667 L60.9863838,33.6159192 C60.9863838,33.2979394 60.718101,33.0405657 60.4158788,33.0405657 C60.1148687,33.0405657 59.3447677,33.1633939 58.5520404,33.1633939 C56.0150707,33.1633939 55.1552727,31.983596 55.1552727,30.4563232 C55.1552727,28.9306667 55.1548687,20.3262222 55.1548687,20.3262222 L60.3205253,20.3262222 C60.6352727,20.3262222 60.8906263,20.0688485 60.8906263,19.7504646 L60.8906263,14.2001616 C60.8906263,13.8821818 60.6352727,13.6260202 60.3205253,13.6260202" id="Fill-15" fill="#100F0F"></path>
            </g>
        </g>
    </g>
</svg>
